dist/images/svg/armchair.svg

<svg width="50" height="50" viewBox="0 0 50 50" fill="none" xmlns="http://www.w3.org/2000/svg"><g clip-path="url(#clip0_8_94)"><path d="M8.33337 41.4445V47" stroke="#21022C" stroke-width="5" stroke-linecap="round" stroke-linejoin="round"/><path d="M41.6666 41.4445V47" stroke="#21022C" stroke-width="5" stroke-linecap="round" stroke-linejoin="round"/><mask id="path-3-inside-1_8_94" fill="white"><path d="M5.33337 34.6668V13.0001C5.33337 9.55234 6.20633 6.24575 7.7602 3.80778C9.31408 1.36982 11.4216 0.000183105 13.6191 0.000183105H35.7143C37.9118 0.000183105 40.0193 1.36982 41.5732 3.80778C43.1271 6.24575 44 9.55234 44 13.0001V34.6668"/></mask><path d="M5.33337 34.6668V13.0001C5.33337 9.55234 6.20633 6.24575 7.7602 3.80778C9.31408 1.36982 11.4216 0.000183105 13.6191 0.000183105H35.7143C37.9118 0.000183105 40.0193 1.36982 41.5732 3.80778C43.1271 6.24575 44 9.55234 44 13.0001V34.6668" fill="#FDE5D2"/><path d="M1.33337 34.6668C1.33337 36.8759 3.12424 38.6668 5.33337 38.6668C7.54251 38.6668 9.33337 36.8759 9.33337 34.6668H1.33337ZM13.6191 0.000183105L13.6191 -3.99982L13.6191 0.000183105ZM35.7143 0.000183105V-3.99982V0.000183105ZM44 13.0001L48 13.0001L44 13.0001ZM40 34.6668C40 36.8759 41.7909 38.6668 44 38.6668C46.2092 38.6668 48 36.8759 48 34.6668H40ZM9.33337 34.6668V13.0001H1.33337V34.6668H9.33337ZM9.33337 13.0001C9.33337 10.1656 10.0619 7.63865 11.1333 5.95769L4.38709 1.65788C2.35073 4.85285 1.33337 8.93911 1.33337 13.0001H9.33337ZM11.1333 5.95769C12.213 4.26372 13.2108 4.00018 13.6191 4.00018L13.6191 -3.99982C9.63239 -3.99982 6.41516 -1.52408 4.38709 1.65788L11.1333 5.95769ZM13.6191 4.00018H35.7143V-3.99982H13.6191V4.00018ZM35.7143 4.00018C36.1226 4.00018 37.1204 4.26372 38.2001 5.95769L44.9463 1.65788C42.9183 -1.52408 39.701 -3.99982 35.7143 -3.99982V4.00018ZM38.2001 5.95769C39.2715 7.63865 40 10.1656 40 13.0001L48 13.0001C48 8.93911 46.9827 4.85285 44.9463 1.65788L38.2001 5.95769ZM40 13.0001V34.6668H48V13.0001H40Z" fill="#21022C" mask="url(#path-3-inside-1_8_94)"/><path d="M9.11111 33.3334C9.11111 34.4379 10.0065 35.3334 11.1111 35.3334H38.8889C39.9935 35.3334 40.8889 34.4379 40.8889 33.3334V27.7778C40.8889 26.8348 41.2635 25.9305 41.9303 25.2637C42.5971 24.5969 43.5014 24.2223 44.4444 24.2223C45.3874 24.2223 46.2918 24.5969 46.9586 25.2637C47.6254 25.9305 48 26.8348 48 27.7778V38.8889C48 39.8319 47.6254 40.7362 46.9586 41.403C46.2918 42.0698 45.3874 42.4444 44.4444 42.4444H5.55556C4.61256 42.4444 3.70819 42.0698 3.0414 41.403C2.3746 40.7362 2 39.8319 2 38.8889V27.7778C2 26.8348 2.3746 25.9305 3.0414 25.2637C3.70819 24.5969 4.61256 24.2223 5.55556 24.2223C6.49855 24.2223 7.40292 24.5969 8.06972 25.2637C8.73651 25.9305 9.11111 26.8348 9.11111 27.7778V33.3334Z" fill="#FDE5D2" stroke="#21022C" stroke-width="4" stroke-linecap="round" stroke-linejoin="round"/></g><defs><clipPath id="clip0_8_94"><rect width="50" height="50" fill="white" transform="translate(0 0.000183105)"/></clipPath></defs></svg>

<svg width="50" height="50" fill="none" xmlns="http://www.w3.org/2000/svg"><g clip-path="url(#a)"><path d="M8.333 41.444V47m33.334-5.556V47" stroke="#21022C" stroke-width="5" stroke-linecap="round" stroke-linejoin="round"/><mask id="b" fill="#fff"><path d="M5.333 34.667V13c0-3.448.873-6.754 2.427-9.192C9.314 1.37 11.422 0 13.62 0h22.094c2.198 0 4.305 1.37 5.86 3.808C43.126 6.246 44 9.552 44 13v21.667"/></mask><path d="M5.333 34.667V13c0-3.448.873-6.754 2.427-9.192C9.314 1.37 11.422 0 13.62 0h22.094c2.198 0 4.305 1.37 5.86 3.808C43.126 6.246 44 9.552 44 13v21.667" fill="#FDE5D2"/><path d="M1.333 34.667a4 4 0 0 0 8 0h-8ZM13.62 0v-4 4Zm22.095 0v-4 4ZM44 13h4-4Zm-4 21.667a4 4 0 0 0 8 0h-8Zm-30.667 0V13h-8v21.667h8Zm0-21.667c0-2.834.729-5.361 1.8-7.042l-6.746-4.3C2.351 4.853 1.333 8.939 1.333 13h8Zm1.8-7.042C12.213 4.264 13.211 4 13.62 4v-8C9.632-4 6.415-1.524 4.387 1.658l6.746 4.3ZM13.62 4h22.095v-8H13.62v8Zm22.095 0c.409 0 1.406.264 2.486 1.958l6.746-4.3C42.918-1.524 39.701-4 35.714-4v8ZM38.2 5.958C39.272 7.638 40 10.166 40 13h8c0-4.06-1.017-8.147-3.054-11.342l-6.746 4.3ZM40 13v21.667h8V13h-8Z" fill="#21022C" mask="url(#b)"/><path d="M9.111 33.333a2 2 0 0 0 2 2H38.89a2 2 0 0 0 2-2v-5.555a3.555 3.555 0 1 1 7.111 0v11.11a3.555 3.555 0 0 1-3.556 3.556H5.556A3.556 3.556 0 0 1 2 38.89V27.778a3.555 3.555 0 1 1 7.111 0v5.555Z" fill="#FDE5D2" stroke="#21022C" stroke-width="4" stroke-linecap="round" stroke-linejoin="round"/></g><defs><clipPath id="a"><path fill="#fff" d="M0 0h50v50H0z"/></clipPath></defs></svg>
